Newaita-dark/apps/24/gimp.svg

<?xml version="1.0" encoding="UTF-8"?>
<svg xmlns="http://www.w3.org/2000/svg" xmlns:xlink="http://www.w3.org/1999/xlink" width="24pt" height="24pt" viewBox="0 0 24 24" version="1.1">
<defs>
<radialGradient id="radial0" gradientUnits="userSpaceOnUse" cx="450.908936" cy="189.579361" fx="450.908936" fy="189.579361" r="21.166656" gradientTransform="matrix(0.000000130628,-0.0585994,-0.105479,-0.0000000761539,39.097987,47.696499)">
<stop offset="0" style="stop-color:rgb(0%,0%,0%);stop-opacity:0.313725;"/>
<stop offset="0.222222" style="stop-color:rgb(0%,0%,0%);stop-opacity:0.27451;"/>
<stop offset="1" style="stop-color:rgb(0%,0%,0%);stop-opacity:0;"/>
</radialGradient>
<radialGradient id="radial1" gradientUnits="userSpaceOnUse" cx="450.908936" cy="189.579361" fx="450.908936" fy="189.579361" r="21.166656" gradientTransform="matrix(-0.000000130628,0.0585994,0.105479,0.0000000761539,-0.398979,-5.645609)">
<stop offset="0" style="stop-color:rgb(0%,0%,0%);stop-opacity:0.313725;"/>
<stop offset="0.222222" style="stop-color:rgb(0%,0%,0%);stop-opacity:0.27451;"/>
<stop offset="1" style="stop-color:rgb(0%,0%,0%);stop-opacity:0;"/>
</radialGradient>
<radialGradient id="radial2" gradientUnits="userSpaceOnUse" cx="450.908936" cy="189.579361" fx="450.908936" fy="189.579361" r="21.166656" gradientTransform="matrix(-0.000000130628,-0.0585994,0.105479,-0.0000000761539,-0.398979,47.696499)">
<stop offset="0" style="stop-color:rgb(0%,0%,0%);stop-opacity:0.313725;"/>
<stop offset="0.222222" style="stop-color:rgb(0%,0%,0%);stop-opacity:0.27451;"/>
<stop offset="1" style="stop-color:rgb(0%,0%,0%);stop-opacity:0;"/>
</radialGradient>
<radialGradient id="radial3" gradientUnits="userSpaceOnUse" cx="450.908936" cy="189.579361" fx="450.908936" fy="189.579361" r="21.166656" gradientTransform="matrix(0.000000130628,0.0585994,-0.105479,0.0000000761539,39.097985,-5.64561)">
<stop offset="0" style="stop-color:rgb(0%,0%,0%);stop-opacity:0.313725;"/>
<stop offset="0.222222" style="stop-color:rgb(0%,0%,0%);stop-opacity:0.27451;"/>
<stop offset="1" style="stop-color:rgb(0%,0%,0%);stop-opacity:0;"/>
</radialGradient>
<linearGradient id="linear0" gradientUnits="userSpaceOnUse" x1="960" y1="215.118118" x2="960" y2="1455.118164" gradientTransform="matrix(0.0124035,0,0,0.0124035,-0.413992,-0.318213)">
<stop offset="0" style="stop-color:rgb(73.72549%,66.666667%,64.313725%);stop-opacity:1;"/>
<stop offset="1" style="stop-color:rgb(55.294118%,43.137255%,38.823529%);stop-opacity:1;"/>
</linearGradient>
<linearGradient id="linear1" gradientUnits="userSpaceOnUse" x1="215.206009" y1="102.704567" x2="215.206009" y2="2.162906" gradientTransform="matrix(1,0,0,1,44.085659,-49.121239)">
<stop offset="0" style="stop-color:rgb(87.843137%,87.843137%,87.843137%);stop-opacity:1;"/>
<stop offset="1" style="stop-color:rgb(93.333333%,93.333333%,93.333333%);stop-opacity:1;"/>
</linearGradient>
<linearGradient id="linear2" gradientUnits="userSpaceOnUse" x1="95.25" y1="106.5" x2="95.25" y2="21.833334" gradientTransform="matrix(1,0,0,1,-8.830994,-6.787895)">
<stop offset="0" style="stop-color:rgb(25.882353%,25.882353%,25.882353%);stop-opacity:1;"/>
<stop offset="1" style="stop-color:rgb(38.039216%,38.039216%,38.039216%);stop-opacity:1;"/>
</linearGradient>
<linearGradient id="linear3" gradientUnits="userSpaceOnUse" x1="209.914337" y1="81.537895" x2="209.914337" y2="-3.128773" gradientTransform="matrix(1,0,0,1,-35.289333,-27.954559)">
<stop offset="0" style="stop-color:rgb(87.843137%,87.843137%,87.843137%);stop-opacity:1;"/>
<stop offset="1" style="stop-color:rgb(93.333333%,93.333333%,93.333333%);stop-opacity:1;"/>
</linearGradient>
<linearGradient id="linear4" gradientUnits="userSpaceOnUse" x1="92.604156" y1="69.458321" x2="92.604156" y2="27.124985" gradientTransform="matrix(1,0,0,1,126.106522,-33.246216)">
<stop offset="0" style="stop-color:rgb(25.882353%,25.882353%,25.882353%);stop-opacity:1;"/>
<stop offset="1" style="stop-color:rgb(38.039216%,38.039216%,38.039216%);stop-opacity:1;"/>
</linearGradient>
<linearGradient id="linear5" gradientUnits="userSpaceOnUse" x1="89.958321" y1="69.458321" x2="89.958321" y2="27.124985" gradientTransform="matrix(1,0,0,1,224.00235,-33.246216)">
<stop offset="0" style="stop-color:rgb(25.882353%,25.882353%,25.882353%);stop-opacity:1;"/>
<stop offset="1" style="stop-color:rgb(38.039216%,38.039216%,38.039216%);stop-opacity:1;"/>
</linearGradient>
<linearGradient id="linear6" gradientUnits="userSpaceOnUse" x1="-31.75" y1="74.75" x2="-63.5" y2="74.75" gradientTransform="matrix(-2.67253,2.67253,-2.67253,-2.67253,1199.118652,1499.659546)">
<stop offset="0" style="stop-color:rgb(97.647059%,65.882353%,14.509804%);stop-opacity:1;"/>
<stop offset="1" style="stop-color:rgb(98.431373%,75.294118%,17.647059%);stop-opacity:1;"/>
</linearGradient>
<linearGradient id="linear7" gradientUnits="userSpaceOnUse" x1="-37.041668" y1="-73.416656" x2="-52.916668" y2="-57.541656" gradientTransform="matrix(1,0,0,1,-41.954601,49.734249)">
<stop offset="0" style="stop-color:rgb(25.882353%,25.882353%,25.882353%);stop-opacity:1;"/>
<stop offset="1" style="stop-color:rgb(38.039216%,38.039216%,38.039216%);stop-opacity:1;"/>
</linearGradient>
<linearGradient id="linear8" gradientUnits="userSpaceOnUse" x1="-31.75" y1="74.75" x2="-63.5" y2="74.75" gradientTransform="matrix(3.779528,-0.000000000000000222,0.000000000000000222,3.779528,-160,972.598389)">
<stop offset="0" style="stop-color:rgb(74.117647%,74.117647%,74.117647%);stop-opacity:1;"/>
<stop offset="1" style="stop-color:rgb(87.843137%,87.843137%,87.843137%);stop-opacity:1;"/>
</linearGradient>
</defs>
<g id="surface1">
<path style=" stroke:none;fill-rule:nonzero;fill:url(#radial0);" d="M 19.347656 21.027344 L 21.335938 21.027344 L 21.335938 20.03125 L 19.347656 20.03125 Z M 19.347656 21.027344 "/>
<path style=" stroke:none;fill-rule:nonzero;fill:url(#radial1);" d="M 19.347656 21.027344 L 17.363281 21.027344 L 17.363281 22.019531 L 19.347656 22.019531 Z M 19.347656 21.027344 "/>
<path style=" stroke:none;fill-rule:nonzero;fill:url(#radial2);" d="M 19.347656 21.027344 L 17.363281 21.027344 L 17.363281 20.03125 L 19.347656 20.03125 Z M 19.347656 21.027344 "/>
<path style=" stroke:none;fill-rule:nonzero;fill:url(#radial3);" d="M 19.347656 21.027344 L 21.335938 21.027344 L 21.335938 22.019531 L 19.347656 22.019531 Z M 19.347656 21.027344 "/>
<path style=" stroke:none;fill-rule:nonzero;fill:url(#linear0);" d="M 16.941406 2.628906 C 16.773438 6.039062 14.1875 8.730469 10.996094 8.730469 C 8.910156 8.730469 7.078125 7.574219 6.015625 5.824219 C 5.148438 8.578125 5.898438 13.566406 2.898438 11.28125 C 2.679688 11.734375 2.5625 12.027344 2.5625 12.519531 C 9.011719 21.699219 19.433594 17.730469 19.433594 8.730469 C 19.433594 6.273438 18.464844 4.085938 16.941406 2.628906 Z M 16.941406 2.628906 "/>
<path style=" stroke:none;fill-rule:nonzero;fill:rgb(100%,100%,100%);fill-opacity:0.392157;" d="M 16.941406 2.628906 C 16.773438 6.039062 14.1875 8.730469 10.996094 8.730469 C 8.910156 8.730469 7.078125 7.574219 6.015625 5.824219 C 5.148438 8.578125 5.898438 13.566406 2.898438 11.28125 C 2.679688 11.734375 2.5625 12.027344 2.5625 12.519531 C 2.5625 12.523438 2.566406 12.523438 2.566406 12.527344 C 2.589844 12.121094 2.703125 11.84375 2.898438 11.441406 C 5.898438 13.726562 5.148438 8.742188 6.015625 5.984375 C 7.078125 7.738281 8.910156 8.890625 10.996094 8.890625 C 14.1875 8.890625 16.773438 6.199219 16.941406 2.792969 C 18.453125 4.234375 19.414062 6.394531 19.429688 8.820312 C 19.429688 8.789062 19.433594 8.757812 19.433594 8.730469 C 19.433594 6.273438 18.464844 4.085938 16.941406 2.628906 Z M 16.941406 2.628906 "/>
<path style=" stroke:none;fill-rule:nonzero;fill:rgb(0%,0%,0%);fill-opacity:0.235294;" d="M 19.429688 8.660156 C 19.359375 17.59375 8.996094 21.507812 2.566406 12.367188 C 2.5625 12.414062 2.5625 12.46875 2.5625 12.519531 C 9.011719 21.699219 19.433594 17.730469 19.433594 8.730469 C 19.433594 8.707031 19.429688 8.683594 19.429688 8.660156 Z M 19.429688 8.660156 "/>
<path style="fill:none;stroke-width:3;stroke-linecap:square;stroke-linejoin:bevel;stroke:rgb(12.941177%,12.941177%,12.941177%);stroke-opacity:1;stroke-miterlimit:4;" d="M 361.382156 -158.922022 C 357.799165 -86.178968 302.637766 -28.767784 234.560934 -28.767784 C 190.065183 -28.767784 150.985582 -53.432096 128.321079 -90.761864 C 109.822846 -32.017474 125.821318 74.389031 61.827429 25.643686 C 57.161208 35.30943 54.661447 41.558833 54.661447 52.057831 C 192.231643 247.872465 414.543746 163.213882 414.543746 -28.767784 C 414.543746 -81.179446 393.879053 -127.841657 361.382156 -158.922022 Z M 361.382156 -158.922022 " transform="matrix(0.0468795,0,0,0.0468795,0,10.079087)"/>
<path style="fill-rule:nonzero;fill:url(#linear1);stroke-width:3;stroke-linecap:square;stroke-linejoin:bevel;stroke:rgb(12.941177%,12.941177%,12.941177%);stroke-opacity:1;stroke-miterlimit:4;" d="M 274.307138 -48.432573 C 302.054489 -48.432573 324.55234 -25.934721 324.55234 1.812629 C 324.55234 29.559979 302.054489 52.057831 274.307138 52.057831 C 246.476463 52.057831 223.978611 29.559979 223.978611 1.812629 C 223.978611 -25.934721 246.476463 -48.432573 274.307138 -48.432573 Z M 274.307138 -48.432573 " transform="matrix(0.0468795,0,0,0.0468795,0,10.079087)"/>
<path style="fill-rule:nonzero;fill:url(#linear2);stroke-width:3;stroke-linecap:square;stroke-linejoin:bevel;stroke:rgb(12.941177%,12.941177%,12.941177%);stroke-opacity:1;stroke-miterlimit:4;" d="M 85.825137 15.061364 L 86.991693 15.061364 C 115.905598 15.061364 139.320029 33.976224 139.320029 57.390655 C 139.320029 80.72176 115.905598 99.719946 86.991693 99.719946 L 85.825137 99.719946 C 56.911232 99.719946 33.496801 80.72176 33.496801 57.390655 C 33.496801 33.976224 56.911232 15.061364 85.825137 15.061364 Z M 85.825137 15.061364 " transform="matrix(0.0468795,0,0,0.0468795,0,10.079087)"/>
<path style="fill-rule:nonzero;fill:url(#linear3);stroke-width:3;stroke-linecap:square;stroke-linejoin:bevel;stroke:rgb(12.941177%,12.941177%,12.941177%);stroke-opacity:1;stroke-miterlimit:4;" d="M 181.64932 -32.600752 C 205.063751 -32.600752 223.978611 -13.602566 223.978611 9.728539 C 223.978611 33.14297 205.063751 52.057831 181.64932 52.057831 C 158.318215 52.057831 139.320029 33.14297 139.320029 9.728539 C 139.320029 -13.602566 158.318215 -32.600752 181.64932 -32.600752 Z M 181.64932 -32.600752 " transform="matrix(0.0468795,0,0,0.0468795,0,10.079087)"/>
<path style="fill-rule:nonzero;fill:url(#linear4);stroke-width:3;stroke-linecap:square;stroke-linejoin:bevel;stroke:rgb(12.941177%,12.941177%,12.941177%);stroke-opacity:1;stroke-miterlimit:4;" d="M 193.564849 -6.103282 C 204.563798 -6.103282 213.396288 2.729208 213.396288 13.728158 C 213.396288 24.643782 204.563798 33.559597 193.564849 33.559597 C 182.649225 33.559597 173.733409 24.643782 173.733409 13.728158 C 173.733409 2.729208 182.649225 -6.103282 193.564849 -6.103282 Z M 193.564849 -6.103282 " transform="matrix(0.0468795,0,0,0.0468795,0,10.079087)"/>
<path style="fill-rule:nonzero;fill:url(#linear5);stroke-width:3;stroke-linecap:square;stroke-linejoin:bevel;stroke:rgb(12.941177%,12.941177%,12.941177%);stroke-opacity:1;stroke-miterlimit:4;" d="M 291.472166 -6.103282 C 302.471115 -6.103282 311.303605 2.729208 311.303605 13.728158 C 311.303605 24.643782 302.471115 33.559597 291.472166 33.559597 C 280.473216 33.559597 271.640726 24.643782 271.640726 13.728158 C 271.640726 2.729208 280.473216 -6.103282 291.472166 -6.103282 Z M 291.472166 -6.103282 " transform="matrix(0.0468795,0,0,0.0468795,0,10.079087)"/>
<path style="fill-rule:nonzero;fill:rgb(38.039216%,38.039216%,38.039216%);fill-opacity:0.235294;stroke-width:3;stroke-linecap:square;stroke-linejoin:bevel;stroke:rgb(12.941177%,12.941177%,12.941177%);stroke-opacity:1;stroke-miterlimit:4;" d="M 317.469683 75.305611 C 318.636238 77.638721 319.219516 80.055157 319.219516 82.554918 L 319.219516 85.138005 C 319.219516 99.053343 300.387981 110.302269 276.890225 110.302269 C 265.141347 110.302269 254.559024 107.469206 246.89309 102.88631 C 252.142588 113.301982 268.307711 120.884591 287.472548 120.884591 C 310.970304 120.884591 329.801839 109.635666 329.801839 95.720328 L 329.801839 93.137241 C 329.801839 86.137909 325.135618 79.888506 317.469683 75.305611 Z M 317.469683 75.305611 " transform="matrix(0.0468795,0,0,0.0468795,0,10.079087)"/>
<path style="fill-rule:nonzero;fill:url(#linear6);stroke-width:11.338583;stroke-linecap:square;stroke-linejoin:bevel;stroke:rgb(12.941177%,12.941177%,12.941177%);stroke-opacity:1;stroke-miterlimit:4;" d="M 1229.621194 1190.626701 C 1210.72536 1213.301701 1177.027791 1230.622882 1136.401749 1238.496146 C 1146.479527 1248.888854 1157.187166 1259.596493 1167.894805 1270.304132 L 1170.414249 1272.823577 C 1287.253486 1389.662813 1393.385084 1471.544758 1408.816681 1456.113161 L 1424.248278 1440.681563 C 1439.679875 1425.249966 1357.797931 1318.803438 1240.958694 1201.964201 L 1238.439249 1199.759687 C 1235.604874 1196.610382 1232.455569 1193.776007 1229.621194 1190.626701 Z M 1229.621194 1190.626701 " transform="matrix(0.0124035,-0.000000000000000001,0.000000000000000001,0.0124035,-0.536797,-0.127347)"/>
<path style="fill-rule:nonzero;fill:url(#linear7);stroke-width:3;stroke-linecap:square;stroke-linejoin:bevel;stroke:rgb(12.941177%,12.941177%,12.941177%);stroke-opacity:1;stroke-miterlimit:4;" d="M -78.989078 -71.357522 C -86.41299 -52.738822 -78.989078 -44.84355 -75.041442 -25.45889 C -70.917046 -5.308271 -83.820513 16.551026 -92.599584 16.492106 C -122.766592 -7.665069 -100.377015 -60.575173 -78.989078 -71.357522 Z M -78.989078 -71.357522 " transform="matrix(-0.0331488,0.0331488,-0.0331488,-0.0331488,14.336504,21.280321)"/>
<path style="fill-rule:nonzero;fill:url(#linear8);stroke-width:11.338583;stroke-linecap:square;stroke-linejoin:bevel;stroke:rgb(12.941177%,12.941177%,12.941177%);stroke-opacity:1;stroke-miterlimit:4;" d="M -360.894484 855.111472 C -375.591994 855.111472 -388.062608 914.792269 -394.743294 1003.422707 C -380.491164 998.078158 -365.570964 995.183194 -349.982696 995.183194 C -334.394428 995.183194 -319.474229 998.078158 -305.222098 1003.422707 C -312.125474 914.56958 -324.373399 855.111472 -339.070909 855.111472 Z M -360.894484 855.111472 " transform="matrix(-0.00877062,0.00877062,-0.00877062,-0.00877062,21.463495,28.407312)"/>
</g>
</svg>

<svg xmlns="http://www.w3.org/2000/svg" width="32" height="32" viewBox="0 0 24 24"><defs><radialGradient id="a" gradientUnits="userSpaceOnUse" cx="450.909" cy="189.579" fx="450.909" fy="189.579" r="21.167" gradientTransform="matrix(0 -.0586 -.10548 0 39.098 47.696)"><stop offset="0" stop-opacity=".314"/><stop offset=".222" stop-opacity=".275"/><stop offset="1" stop-opacity="0"/></radialGradient><radialGradient id="b" gradientUnits="userSpaceOnUse" cx="450.909" cy="189.579" fx="450.909" fy="189.579" r="21.167" gradientTransform="matrix(0 .0586 .10548 0 -.399 -5.646)"><stop offset="0" stop-opacity=".314"/><stop offset=".222" stop-opacity=".275"/><stop offset="1" stop-opacity="0"/></radialGradient><radialGradient id="c" gradientUnits="userSpaceOnUse" cx="450.909" cy="189.579" fx="450.909" fy="189.579" r="21.167" gradientTransform="matrix(0 -.0586 .10548 0 -.399 47.696)"><stop offset="0" stop-opacity=".314"/><stop offset=".222" stop-opacity=".275"/><stop offset="1" stop-opacity="0"/></radialGradient><radialGradient id="d" gradientUnits="userSpaceOnUse" cx="450.909" cy="189.579" fx="450.909" fy="189.579" r="21.167" gradientTransform="matrix(0 .0586 -.10548 0 39.098 -5.646)"><stop offset="0" stop-opacity=".314"/><stop offset=".222" stop-opacity=".275"/><stop offset="1" stop-opacity="0"/></radialGradient><linearGradient id="e" gradientUnits="userSpaceOnUse" x1="960" y1="215.118" x2="960" y2="1455.118" gradientTransform="matrix(.0124 0 0 .0124 -.414 -.318)"><stop offset="0" stop-color="#bcaaa4"/><stop offset="1" stop-color="#8d6e63"/></linearGradient><linearGradient id="f" gradientUnits="userSpaceOnUse" x1="215.206" y1="102.705" x2="215.206" y2="2.163" gradientTransform="translate(44.086 -49.121)"><stop offset="0" stop-color="#e0e0e0"/><stop offset="1" stop-color="#eee"/></linearGradient><linearGradient id="g" gradientUnits="userSpaceOnUse" x1="95.25" y1="106.5" x2="95.25" y2="21.833" gradientTransform="translate(-8.831 -6.788)"><stop offset="0" stop-color="#424242"/><stop offset="1" stop-color="#616161"/></linearGradient><linearGradient id="h" gradientUnits="userSpaceOnUse" x1="209.914" y1="81.538" x2="209.914" y2="-3.129" gradientTransform="translate(-35.29 -27.955)"><stop offset="0" stop-color="#e0e0e0"/><stop offset="1" stop-color="#eee"/></linearGradient><linearGradient id="i" gradientUnits="userSpaceOnUse" x1="92.604" y1="69.458" x2="92.604" y2="27.125" gradientTransform="translate(126.107 -33.246)"><stop offset="0" stop-color="#424242"/><stop offset="1" stop-color="#616161"/></linearGradient><linearGradient id="j" gradientUnits="userSpaceOnUse" x1="89.958" y1="69.458" x2="89.958" y2="27.125" gradientTransform="translate(224.002 -33.246)"><stop offset="0" stop-color="#424242"/><stop offset="1" stop-color="#616161"/></linearGradient><linearGradient id="k" gradientUnits="userSpaceOnUse" x1="-31.75" y1="74.75" x2="-63.5" y2="74.75" gradientTransform="rotate(135 288.97 998.176) scale(3.77953)"><stop offset="0" stop-color="#f9a825"/><stop offset="1" stop-color="#fbc02d"/></linearGradient><linearGradient id="l" gradientUnits="userSpaceOnUse" x1="-37.042" y1="-73.417" x2="-52.917" y2="-57.542" gradientTransform="translate(-41.955 49.734)"><stop offset="0" stop-color="#424242"/><stop offset="1" stop-color="#616161"/></linearGradient><linearGradient id="m" gradientUnits="userSpaceOnUse" x1="-31.75" y1="74.75" x2="-63.5" y2="74.75" gradientTransform="matrix(3.77953 0 0 3.77953 -160 972.598)"><stop offset="0" stop-color="#bdbdbd"/><stop offset="1" stop-color="#e0e0e0"/></linearGradient></defs><path d="M19.348 21.027h1.988v-.996h-1.988zm0 0" fill="url(#a)"/><path d="M19.348 21.027h-1.985v.993h1.985zm0 0" fill="url(#b)"/><path d="M19.348 21.027h-1.985v-.996h1.985zm0 0" fill="url(#c)"/><path d="M19.348 21.027h1.988v.993h-1.988zm0 0" fill="url(#d)"/><path d="M16.941 2.629c-.168 3.41-2.753 6.101-5.945 6.101-2.086 0-3.918-1.156-4.98-2.906-.868 2.754-.118 7.742-3.118 5.457-.218.453-.336.746-.336 1.239 6.45 9.18 16.872 5.21 16.872-3.79 0-2.457-.97-4.644-2.493-6.101zm0 0" fill="url(#e)"/><path d="M16.941 2.629c-.168 3.41-2.753 6.101-5.945 6.101-2.086 0-3.918-1.156-4.98-2.906-.868 2.754-.118 7.742-3.118 5.457-.218.453-.336.746-.336 1.239 0 .003.004.003.004.007.024-.406.137-.683.332-1.086 3 2.286 2.25-2.699 3.118-5.457 1.062 1.754 2.894 2.907 4.98 2.907 3.191 0 5.777-2.692 5.945-6.098 1.512 1.441 2.473 3.602 2.489 6.027 0-.03.004-.062.004-.09 0-2.457-.97-4.644-2.493-6.101zm0 0" fill="#fff" fill-opacity=".392"/><path d="M19.43 8.66c-.07 8.934-10.434 12.848-16.864 3.707-.003.047-.003.102-.003.153 6.449 9.18 16.87 5.21 16.87-3.79 0-.023-.003-.046-.003-.07zm0 0" fill-opacity=".235"/><path d="M16.941 2.629c-.168 3.41-2.753 6.101-5.945 6.101-2.086 0-3.918-1.156-4.98-2.906-.868 2.754-.118 7.742-3.118 5.457-.218.453-.335.746-.335 1.239 6.449 9.18 16.87 5.21 16.87-3.79 0-2.457-.968-4.644-2.492-6.101zm0 0" fill="none" stroke-width=".14064" stroke-linecap="square" stroke-linejoin="bevel" stroke="#212121"/><path d="M274.307-48.433c27.747 0 50.245 22.498 50.245 50.246 0 27.747-22.498 50.245-50.245 50.245-27.83 0-50.328-22.498-50.328-50.245 0-27.748 22.497-50.246 50.328-50.246zm0 0" transform="matrix(.04688 0 0 .04688 0 10.08)" fill="url(#f)" stroke-width="3" stroke-linecap="square" stroke-linejoin="bevel" stroke="#212121"/><path d="M85.825 15.061h1.167c28.914 0 52.328 18.915 52.328 42.33 0 23.33-23.414 42.329-52.328 42.329h-1.167c-28.914 0-52.328-18.998-52.328-42.33 0-23.414 23.414-42.329 52.328-42.329zm0 0" transform="matrix(.04688 0 0 .04688 0 10.08)" fill="url(#g)" stroke-width="3" stroke-linecap="square" stroke-linejoin="bevel" stroke="#212121"/><path d="M181.65-32.6c23.414 0 42.329 18.997 42.329 42.329 0 23.414-18.915 42.329-42.33 42.329-23.33 0-42.329-18.915-42.329-42.33 0-23.33 18.998-42.329 42.33-42.329zm0 0" transform="matrix(.04688 0 0 .04688 0 10.08)" fill="url(#h)" stroke-width="3" stroke-linecap="square" stroke-linejoin="bevel" stroke="#212121"/><path d="M193.565-6.103a19.772 19.772 0 0 1 19.831 19.831c0 10.916-8.832 19.832-19.831 19.832-10.916 0-19.832-8.916-19.832-19.832 0-10.999 8.916-19.831 19.832-19.831zm0 0" transform="matrix(.04688 0 0 .04688 0 10.08)" fill="url(#i)" stroke-width="3" stroke-linecap="square" stroke-linejoin="bevel" stroke="#212121"/><path d="M291.472-6.103a19.772 19.772 0 0 1 19.832 19.831c0 10.916-8.833 19.832-19.832 19.832s-19.831-8.916-19.831-19.832a19.772 19.772 0 0 1 19.831-19.831zm0 0" transform="matrix(.04688 0 0 .04688 0 10.08)" fill="url(#j)" stroke-width="3" stroke-linecap="square" stroke-linejoin="bevel" stroke="#212121"/><path d="M14.883 13.61c.055.109.082.222.082.34v.12c0 .653-.883 1.18-1.985 1.18-.55 0-1.046-.133-1.406-.348.246.489 1.004.844 1.903.844 1.101 0 1.984-.527 1.984-1.18v-.12c0-.329-.219-.622-.578-.837zm0 0" fill="#616161" fill-opacity=".235" stroke-width=".14064" stroke-linecap="square" stroke-linejoin="bevel" stroke="#212121"/><path d="M1229.621 1190.627c-18.896 22.675-52.593 39.996-93.22 47.87 10.079 10.392 20.786 21.1 31.494 31.807l2.52 2.52c116.838 116.839 222.97 198.72 238.402 183.29l15.431-15.432c15.432-15.432-66.45-121.879-183.29-238.718l-2.519-2.204c-2.834-3.15-5.983-5.984-8.818-9.133zm0 0" transform="matrix(.0124 0 0 .0124 -.537 -.127)" fill="url(#k)" stroke-width="11.339" stroke-linecap="square" stroke-linejoin="bevel" stroke="#212121"/><path d="M-78.99-71.358c-7.423 18.62 0 26.514 3.949 45.9 4.124 20.15-8.78 42.009-17.559 41.95-30.167-24.157-7.777-77.067 13.61-87.85zm0 0" transform="rotate(134.999 2.761 13.61) scale(.04688)" fill="url(#l)" stroke-width="3" stroke-linecap="square" stroke-linejoin="bevel" stroke="#212121"/><path d="M-360.894 855.111c-14.698 0-27.169 59.681-33.85 148.312 14.253-5.345 29.173-8.24 44.761-8.24 15.589 0 30.509 2.895 44.76 8.24-6.902-88.853-19.15-148.312-33.848-148.312zm0 0" transform="scale(-.0124) rotate(-45 -3629.806 943.689)" fill="url(#m)" stroke-width="11.339" stroke-linecap="square" stroke-linejoin="bevel" stroke="#212121"/></svg>
